pro/src/icons/full-help.svg

<svg width="48" height="48" viewBox="0 0 48 48" xmlns="http://www.w3.org/2000/svg">
<path id="icon" fill-rule="evenodd" clip-rule="evenodd" d="M44 24C44 35.0457 35.0457 44 24 44C12.9543 44 4 35.0457 4 24C4 12.9543 12.9543 4 24 4C35.0457 4 44 12.9543 44 24ZM24 31.4022C22.7304 31.4022 21.7011 32.4314 21.7011 33.7011C21.7011 34.9707 22.7304 36 24 36C25.2697 36 26.299 34.9707 26.299 33.7011C26.299 32.4314 25.2697 31.4022 24 31.4022ZM21.8169 27.6886C21.647 28.7801 22.5751 29.6821 23.6797 29.6821H23.7422C24.8468 29.6821 25.5052 28.7351 25.894 27.7012C26.0668 27.2415 26.4142 26.7445 27.1016 26.0571L28.3672 24.854C29.3568 23.8957 30.0495 23.0259 30.4453 22.2446C30.8411 21.453 31.0391 20.6144 31.0391 19.729C31.0391 17.7811 30.4297 16.2759 29.2109 15.2134C27.9922 14.1405 26.2786 13.604 24.0703 13.604C21.8828 13.604 20.1536 14.1665 18.8828 15.2915C18.208 15.8938 17.7108 16.6201 17.3913 17.4702C16.8988 18.7808 18.1037 19.9634 19.5037 19.9634C20.4996 19.9634 21.2159 19.1419 21.885 18.3746C21.959 18.2897 22.0325 18.2054 22.1057 18.123C22.139 18.0855 22.174 18.048 22.2109 18.0103C22.6797 17.5311 23.2995 17.2915 24.0703 17.2915C25.6953 17.2915 26.5078 18.1717 26.5078 19.9321C26.5078 20.5155 26.3516 21.0728 26.0391 21.604C25.7266 22.1248 25.0964 22.8071 24.1484 23.6509C23.2109 24.4842 22.5651 25.3332 22.2109 26.1978C22.0368 26.6229 21.9054 27.1199 21.8169 27.6886Z" fill="currentColor"/>
</svg>

<svg xmlns="http://www.w3.org/2000/svg" width="48" height="48"><path id="icon" fill="currentColor" fill-rule="evenodd" d="M44 24c0 11.046-8.954 20-20 20S4 35.046 4 24 12.954 4 24 4s20 8.954 20 20m-20 7.402A2.299 2.299 0 1 0 24 36a2.299 2.299 0 0 0 0-4.598m-2.183-3.713c-.17 1.091.758 1.993 1.863 1.993h.062c1.105 0 1.763-.947 2.152-1.98.173-.46.52-.958 1.208-1.645l1.265-1.203q1.484-1.437 2.078-2.61.594-1.187.594-2.515 0-2.922-1.828-4.516-1.828-1.608-5.14-1.609-3.282 0-5.188 1.688a5.45 5.45 0 0 0-1.492 2.178c-.492 1.31.713 2.493 2.113 2.493.996 0 1.712-.821 2.381-1.588q.11-.128.22-.252.05-.056.106-.113.703-.719 1.86-.719 2.436 0 2.437 2.641 0 .875-.469 1.672-.469.78-1.89 2.047-1.407 1.25-1.938 2.547a6.6 6.6 0 0 0-.394 1.49" clip-rule="evenodd"/></svg>
